src/assets/chart.svg

<svg fill="none" height="150" viewBox="0 0 150 150" width="150" xmlns="http://www.w3.org/2000/svg"><path d="m128.046 21.9539c-14.188-14.16027-33.0131-21.9539-53.046-21.9539s-38.8584 7.79363-53.0461 21.9539c-14.16027 14.1877-21.9539 33.0132-21.9539 53.0461s7.79363 38.858 21.9539 53.046c14.1603 14.16 33.0132 21.954 53.0461 21.954s38.858-7.794 53.046-21.954c14.16-14.16 21.954-33.0131 21.954-53.046s-7.794-38.8584-21.954-53.0461z" fill="#ffc700"/><g fill="#000"><path d="m121.817 102.14h-93.6337v-64.8733h93.6337zm-86.7731-6.8601h79.9121v-51.1526h-79.9121z"/><path d="m50.4391 130.681c-.5214 0-1.0428-.11-1.5367-.357-1.7015-.851-2.3875-2.909-1.5368-4.611l14.3249-28.5122c.8507-1.7014 2.9089-2.3874 4.6103-1.5367 1.7015.8507 2.3875 2.9089 1.5368 4.6099l-14.3249 28.513c-.6312 1.18-1.8386 1.894-3.0736 1.894z"/><path d="m98.7926 130.681c-1.2623 0-2.4698-.687-3.0735-1.894l-14.3249-28.513c-.8507-1.701-.1647-3.7592 1.5367-4.6099 1.7015-.8507 3.7596-.1647 4.6104 1.5367l14.2977 28.4852c.85 1.701.164 3.76-1.537 4.61-.4666.247-.988.385-1.5094.385z"/><path d="m104.446 58.5895h-57.6295c-1.8935 0-3.4303-1.5368-3.4303-3.4303s1.5368-3.4303 3.4303-3.4303h57.6295c1.893 0 3.43 1.5368 3.43 3.4303s-1.537 3.4303-3.43 3.4303z"/><path d="m104.446 70.9934h-57.6295c-1.8935 0-3.4303-1.5368-3.4303-3.4303s1.5368-3.4303 3.4303-3.4303h57.6295c1.893 0 3.43 1.5368 3.43 3.4303s-1.537 3.4303-3.43 3.4303z"/><path d="m104.446 83.3973h-24.6986c-1.8935 0-3.4303-1.5367-3.4303-3.4303 0-1.8935 1.5368-3.4303 3.4303-3.4303h24.6986c1.893 0 3.43 1.5368 3.43 3.4303 0 1.8936-1.537 3.4303-3.43 3.4303z"/></g></svg>

<svg width="150" height="150" viewBox="0 0 150 150" fill="none" xmlns="http://www.w3.org/2000/svg">
<path d="M128.046 21.9539C113.858 7.79363 95.0329 0 75 0C54.9671 0 36.1416 7.79363 21.9539 21.9539C7.79363 36.1416 0 54.9671 0 75C0 95.0329 7.79363 113.858 21.9539 128.046C36.1142 142.206 54.9671 150 75 150C95.0329 150 113.858 142.206 128.046 128.046C142.206 113.886 150 95.0329 150 75C150 54.9671 142.206 36.1416 128.046 21.9539Z" fill="#FFC700"/>
<path d="M121.817 102.14H28.1833V37.2667H121.817V102.14ZM35.0439 95.2799H114.956V44.1273H35.0439V95.2799Z" fill="black"/>
<path d="M50.4391 130.681C49.9177 130.681 49.3963 130.571 48.9024 130.324C47.2009 129.473 46.5149 127.415 47.3656 125.713L61.6905 97.2008C62.5412 95.4994 64.5994 94.8134 66.3008 95.6641C68.0023 96.5148 68.6883 98.573 67.8376 100.274L53.5127 128.787C52.8815 129.967 51.6741 130.681 50.4391 130.681Z" fill="black"/>
<path d="M98.7926 130.681C97.5303 130.681 96.3228 129.994 95.7191 128.787L81.3942 100.274C80.5435 98.573 81.2295 96.5148 82.9309 95.6641C84.6324 94.8134 86.6905 95.4994 87.5413 97.2008L101.839 125.686C102.689 127.387 102.003 129.446 100.302 130.296C99.8354 130.543 99.314 130.681 98.7926 130.681Z" fill="black"/>
<path d="M104.446 58.5895H46.8165C44.923 58.5895 43.3862 57.0527 43.3862 55.1592C43.3862 53.2657 44.923 51.7289 46.8165 51.7289H104.446C106.339 51.7289 107.876 53.2657 107.876 55.1592C107.876 57.0527 106.339 58.5895 104.446 58.5895Z" fill="black"/>
<path d="M104.446 70.9934H46.8165C44.923 70.9934 43.3862 69.4566 43.3862 67.5631C43.3862 65.6696 44.923 64.1328 46.8165 64.1328H104.446C106.339 64.1328 107.876 65.6696 107.876 67.5631C107.876 69.4566 106.339 70.9934 104.446 70.9934Z" fill="black"/>
<path d="M104.446 83.3973H79.7474C77.8539 83.3973 76.3171 81.8606 76.3171 79.967C76.3171 78.0735 77.8539 76.5367 79.7474 76.5367H104.446C106.339 76.5367 107.876 78.0735 107.876 79.967C107.876 81.8606 106.339 83.3973 104.446 83.3973Z" fill="black"/>
</svg>
